usr/share/icons/biglinux-icons-material/symbolic/apps/utilities-tweak-tool-symbolic.svg

<svg width="16" height="16" version="1.1" xmlns="http://www.w3.org/2000/svg">
 <g fill="#363636">
  <path d="m3.5 1c-1.939 0-3.5 1.561-3.5 3.5s1.561 3.5 3.5 3.5h9c1.939 0 3.5-1.561 3.5-3.5s-1.561-3.5-3.5-3.5h-9zm0 1h9c1.385 0 2.5 1.115 2.5 2.5s-1.115 2.5-2.5 2.5h-9c-1.385 0-2.5-1.115-2.5-2.5s1.115-2.5 2.5-2.5z"/>
  <circle cx="3.5" cy="4.5" r="1.5"/>
  <path d="m3.5 9c-1.9385 0-3.5 1.5616-3.5 3.5 2.9606e-16 1.9385 1.5615 3.5 3.5 3.5h9c1.9385 0 3.5-1.5616 3.5-3.5 0-1.9385-1.5615-3.5-3.5-3.5h-9zm9 2a1.5 1.5 0 0 1 1.5 1.5 1.5 1.5 0 0 1-1.5 1.5 1.5 1.5 0 0 1-1.5-1.5 1.5 1.5 0 0 1 1.5-1.5z"/>
 </g>
</svg>

<svg xmlns="http://www.w3.org/2000/svg" width="16" height="16"><g fill="#dedede"><path d="M3.5 1C1.561 1 0 2.561 0 4.5S1.561 8 3.5 8h9C14.439 8 16 6.439 16 4.5S14.439 1 12.5 1h-9zm0 1h9C13.885 2 15 3.115 15 4.5S13.885 7 12.5 7h-9C2.115 7 1 5.885 1 4.5S2.115 2 3.5 2z"/><circle cx="3.5" cy="4.5" r="1.5"/><path d="M3.5 9A3.493 3.493 0 0 0 0 12.5C0 14.438 1.562 16 3.5 16h9c1.938 0 3.5-1.562 3.5-3.5S14.438 9 12.5 9h-9zm9 2a1.5 1.5 0 0 1 1.5 1.5 1.5 1.5 0 0 1-1.5 1.5 1.5 1.5 0 0 1-1.5-1.5 1.5 1.5 0 0 1 1.5-1.5z"/></g></svg>
